src/svg/11-flags/flag-uy.svg

<svg xmlns="http://www.w3.org/2000/svg" width="640" height="480"><g fill="none" fill-rule="evenodd"><path fill="#FFF" d="M0 0h640v480H0z"/><path fill="#0038A8" d="M266.667 53.333H640v53.333H266.667zm0 106.667H640v53.333H266.667zM0 266.667h640V320H0zm0 106.666h640v53.333H0z"/><path fill="#FCD116" d="M266.22 132.413l-67.828-12.332c21.064-9.03 27.932-18.29 32.99-25.12 4.915-6.63 8.162-11.01 22.118-11.01l.78.01 1.395.02.33-1.34-1.247-.63c-6.13-3.11-11.124-4.554-15.718-4.554-6.274 0-11.034 2.77-16.545 5.975-7.558 4.4-16.12 9.354-32.082 9.965l37.314-53.9-.986-.982-56.68 39.24c8.51-21.274 6.82-32.68 5.57-41.06-1.23-8.313-2.05-13.804 8.4-24.006l1-.973-.71-1.18-1.32.435c-16.98 5.55-19.01 13.214-21.81 23.82-2.23 8.452-4.78 18.01-15.64 29.73L133.81 0h-1.395L120.08 67.828c-9.028-21.06-18.29-27.93-25.095-32.972-6.753-5.003-11.214-8.307-11.036-22.914l.01-1.397-1.34-.33-.64 1.247c-8.08 15.932-4.1 22.78 1.42 32.263 4.4 7.56 9.35 16.12 9.96 32.08l-53.89-37.31-.99.986 39.25 56.69c-11.096-4.43-20.795-6.6-29.596-6.6-4.55 0-8.22.55-11.46 1.03-2.586.39-4.82.72-7.026.72-4.85 0-9.6-1.55-16.98-9.114l-.98-1-1.18.717.43 1.328c5.552 16.986 13.213 19.01 23.82 21.81 8.452 2.236 18.01 4.786 29.73 15.64L0 132.416v1.394l67.83 12.33c-21.06 9.02-27.93 18.29-32.976 25.1-4.926 6.64-8.18 11.03-22.173 11.03l-.74-.01-1.39-.02-.33 1.34 1.25.633c6.13 3.11 11.13 4.56 15.72 4.56 6.27 0 11.03-2.77 16.55-5.978 7.56-4.4 16.12-9.36 32.08-9.97l-37.312 53.9.986.986 56.68-39.242c-8.51 21.28-6.817 32.685-5.57 41.06 1.237 8.315 2.055 13.807-8.4 24.01l-1 .98.715 1.18 1.33-.43c16.98-5.55 19.006-13.215 21.81-23.82 2.234-8.454 4.784-18.012 15.64-29.73l11.725 64.494h1.397l12.334-67.826c9.02 21.06 18.282 27.93 25.09 32.97 6.754 5.004 11.215 8.31 11.04 22.915l-.02 1.4 1.34.33.63-1.244c8.083-15.93 4.1-22.78-1.42-32.26-4.397-7.56-9.35-16.12-9.96-32.08l53.895 37.31.99-.986-39.244-56.683c11.096 4.437 20.79 6.6 29.59 6.6 4.55 0 8.23-.546 11.477-1.03 2.59-.384 4.826-.716 7.027-.716 4.85 0 9.594 1.55 16.98 9.117l.98 1 1.18-.71-.438-1.33c-5.553-16.98-13.214-19.007-23.82-21.81-8.453-2.234-18.01-4.784-29.73-15.64l64.495-11.725v-1.397z"/></g></svg>

<?xml version="1.0" encoding="UTF-8" standalone="no"?>
<svg width="640px" height="480px" viewBox="0 0 640 480" version="1.1" xmlns="http://www.w3.org/2000/svg" xmlns:xlink="http://www.w3.org/1999/xlink">
    <g stroke="none" stroke-width="1" fill="none" fill-rule="evenodd">
        <rect fill="#FFFFFF" x="0" y="0" width="640" height="480"></rect>
        <rect fill="#0038A8" x="266.666667" y="53.333333" width="373.333333" height="53.3333333"></rect>
        <rect fill="#0038A8" x="266.666667" y="160" width="373.333333" height="53.3333333"></rect>
        <rect fill="#0038A8" x="0" y="266.666666" width="640" height="53.3333333"></rect>
        <rect fill="#0038A8" x="0" y="373.333333" width="640" height="53.3333333"></rect>
        <path d="M266.22,132.413 L198.392,120.081 C219.456,111.051 226.324,101.79 231.383,94.959 C236.297,88.326 239.544,83.944 253.5,83.944 L254.279,83.949 L255.675,83.966 L256.004,82.626 L254.758,81.994 C248.629,78.884 243.634,77.436 239.04,77.436 C232.766,77.436 228.006,80.206 222.495,83.413 C214.937,87.811 206.374,92.766 190.413,93.377 L227.727,39.481 L226.741,38.495 L170.057,77.737 C178.565,56.462 176.874,45.055 175.627,36.675 C174.39,28.363 173.573,22.872 184.027,12.67 L185.027,11.693 L184.311,10.513 L182.985,10.947 C166,16.498 163.976,24.16 161.173,34.765 C158.939,43.218 156.39,52.775 145.533,64.495 L133.807,0 L132.413,0 L120.08,67.828 C111.052,46.768 101.791,39.899 94.985,34.856 C88.232,29.853 83.771,26.549 83.949,11.942 L83.966,10.545 L82.626,10.215 L81.992,11.462 C73.91,27.394 77.895,34.243 83.413,43.725 C87.811,51.284 92.765,59.845 93.376,75.806 L39.48,38.494 L38.494,39.48 L77.736,96.164 C66.641,91.729 56.942,89.564 48.141,89.564 C43.591,89.564 39.917,90.111 36.675,90.593 C34.088,90.978 31.853,91.311 29.648,91.311 C24.798,91.311 20.054,89.761 12.669,82.193 L11.693,81.193 L10.512,81.909 L10.946,83.237 C16.498,100.221 24.159,102.245 34.763,105.047 C43.218,107.281 52.774,109.831 64.494,120.687 L0,132.413 L0,133.808 L67.829,146.14 C46.77,155.167 39.9,164.428 34.854,171.239 C29.928,177.885 26.675,182.274 12.681,182.274 L11.941,182.27 L10.544,182.254 L10.215,183.595 L11.461,184.227 C17.592,187.338 22.586,188.786 27.179,188.786 C33.45,188.786 38.208,186.017 43.724,182.809 C51.283,178.41 59.843,173.455 75.806,172.845 L38.494,226.741 L39.48,227.727 L96.161,188.485 C87.654,209.761 89.345,221.168 90.592,229.546 C91.829,237.858 92.647,243.35 82.193,253.551 L81.193,254.526 L81.907,255.708 L83.237,255.274 C100.219,249.723 102.244,242.061 105.047,231.457 C107.282,223.003 109.832,213.445 120.686,201.726 L132.413,266.221 L133.807,266.221 L146.139,198.392 C155.167,219.451 164.428,226.321 171.235,231.364 C177.988,236.367 182.449,239.672 182.271,254.278 L182.253,255.676 L183.594,256.005 L184.226,254.759 C192.309,238.827 188.324,231.978 182.807,222.496 C178.409,214.936 173.454,206.374 172.844,190.414 L226.741,227.726 L227.727,226.74 L188.484,170.057 C199.579,174.493 209.276,176.657 218.075,176.657 C222.626,176.657 226.301,176.11 229.55,175.627 C232.138,175.242 234.372,174.91 236.573,174.91 C241.424,174.91 246.167,176.461 253.551,184.027 L254.527,185.027 L255.707,184.312 L255.274,182.983 C249.722,166.002 242.061,163.976 231.456,161.173 C223.002,158.939 213.444,156.389 201.725,145.534 L266.22,133.808 L266.22,132.413 Z" fill="#FCD116"></path>
    </g>
</svg>
